X:340
T: DER MAI DER MAI DER LUSTIGE MAI
N: E0962
O: Europa, Mitteleuropa, Deutschland, Rheinland, Siebengebirge
R: Tanz - Lied, Reigen, Mai - Tanz
M: 4/4
L: 1/8
K: G
D | G3AB2d2 | B2ABG2z
A | B2d2e2d2 | A3dd2z
D | G2GAB2d2 | dcBAB2z
d | e2dcBAGB | A4G2z2
B3AG2A2 | BABcd2z
d | e2dcBAGB | A4G2z

